;FLAVOR:Marlin
;TIME:2369
;Filament used: 1.84169m
;Layer height: 0.28
;MINX:86.5
;MINY:101.5
;MINZ:0.28
;MAXX:148.5
;MAXY:133.5
;MAXZ:51.8
;Generated with Cura_SteamEngine 4.6.1
M140 S50
M105
M190 S50
M104 S200
M105
M109 S200
M82 ;absolute extrusion mode
; Ender 3 Custom Start G-code
G92 E0 ; Reset Extruder
G28 ; Home all axes
G1 Z2.0 F3000 ; Move Z Axis up little to prevent scratching of Heat Bed
G1 X0.1 Y20 Z0.3 F5000.0 ; Move to start position
G1 X0.1 Y200.0 Z0.3 F1500.0 E15 ; Draw the first line
G1 X0.4 Y200.0 Z0.3 F5000.0 ; Move to side a little
G1 X0.4 Y20 Z0.3 F1500.0 E30 ; Draw the second line
G92 E0 ; Reset Extruder
G1 Z2.0 F3000 ; Move Z Axis up little to prevent scratching of Heat Bed
G1 X5 Y20 Z0.3 F5000.0 ; Move over to prevent blob squish
G92 E0
G92 E0
G1 F2700 E-5
;LAYER_COUNT:185
;LAYER:0
M107
G0 F6000 X137.637 Y102.311 Z0.28
;TYPE:SKIRT
G1 F2700 E0
G1 F1200 X138.539 Y102.364 E0.04207
G1 X139.432 Y102.496 E0.08411
G1 X140.31 Y102.707 E0.12615
G1 X141.166 Y102.995 E0.16821
G1 X141.993 Y103.357 E0.21025
G1 X142.785 Y103.792 E0.25232
G1 X143.536 Y104.294 E0.29438
G1 X144.239 Y104.861 E0.33644
G1 X144.889 Y105.488 E0.37849
G1 X145.481 Y106.17 E0.42054
G1 X146.011 Y106.901 E0.46259
G1 X146.473 Y107.677 E0.50464
G1 X146.866 Y108.49 E0.54669
G1 X147.184 Y109.335 E0.58873
G1 X147.427 Y110.205 E0.63079
G1 X147.592 Y111.093 E0.67285
G1 X147.687 Y112.223 E0.72565
G1 X147.7 Y112.83 E0.75392
G1 X147.699 Y121.89 E1.17579
G1 X147.69 Y122.617 E1.20965
G1 X147.639 Y123.519 E1.25171
G1 X147.508 Y124.413 E1.29379
G1 X147.299 Y125.291 E1.33581
G1 X147.013 Y126.148 E1.37788
G1 X146.652 Y126.976 E1.41994
G1 X146.22 Y127.768 E1.46195
G1 X145.719 Y128.52 E1.50403
G1 X145.153 Y129.224 E1.54609
G1 X144.528 Y129.875 E1.58811
G1 X143.847 Y130.469 E1.63019
G1 X143.116 Y131 E1.67226
G1 X142.342 Y131.464 E1.71428
G1 X141.529 Y131.858 E1.75635
G1 X140.685 Y132.178 E1.79838
G1 X139.815 Y132.423 E1.84047
G1 X138.928 Y132.589 E1.88248
G1 X137.777 Y132.687 E1.93627
G1 X137.17 Y132.7 E1.96454
G1 X98.075 Y132.699 E3.78497
G1 X97.377 Y132.69 E3.81748
G1 X96.476 Y132.639 E3.8595
G1 X95.582 Y132.507 E3.90158
G1 X94.704 Y132.298 E3.9436
G1 X93.847 Y132.011 E3.98569
G1 X93.02 Y131.65 E4.0277
G1 X92.227 Y131.217 E4.06978
G1 X91.476 Y130.716 E4.11181
G1 X90.772 Y130.15 E4.15387
G1 X90.121 Y129.524 E4.19593
G1 X89.528 Y128.843 E4.23798
G1 X88.998 Y128.112 E4.28002
G1 X88.534 Y127.337 E4.32208
G1 X88.14 Y126.524 E4.36415
G1 X87.82 Y125.68 E4.40618
G1 X87.576 Y124.81 E4.44825
G1 X87.41 Y123.922 E4.49032
G1 X87.313 Y122.767 E4.54429
G1 X87.3 Y122.158 E4.57265
G1 X87.301 Y113.036 E4.99741
G1 X87.31 Y112.371 E5.02838
G1 X87.362 Y111.469 E5.07045
G1 X87.494 Y110.576 E5.11248
G1 X87.704 Y109.698 E5.15452
G1 X87.991 Y108.841 E5.1966
G1 X88.353 Y108.014 E5.23864
G1 X88.786 Y107.222 E5.28067
G1 X89.288 Y106.471 E5.32273
G1 X89.855 Y105.767 E5.36483
G1 X90.481 Y105.117 E5.40685
G1 X91.162 Y104.524 E5.44889
G1 X91.894 Y103.994 E5.49097
G1 X92.669 Y103.531 E5.53301
G1 X93.482 Y103.138 E5.57506
G1 X94.327 Y102.818 E5.61713
G1 X95.196 Y102.575 E5.65915
G1 X96.084 Y102.409 E5.70121
G1 X97.223 Y102.313 E5.75444
G1 X97.83 Y102.3 E5.78271
G1 X136.939 Y102.301 E7.60379
G1 X137.637 Y102.311 E7.63629
G0 F6000 X137.643 Y101.911
G1 F1200 X138.562 Y101.964 E7.67916
G1 X139.473 Y102.097 E7.72203
G1 X140.369 Y102.308 E7.76489
G1 X141.243 Y102.596 E7.80774
G1 X142.09 Y102.959 E7.85065
G1 X142.901 Y103.394 E7.8935
G1 X143.671 Y103.898 E7.93635
G1 X144.395 Y104.467 E7.97923
G1 X145.067 Y105.097 E8.02212
G1 X145.682 Y105.782 E8.06499
G1 X146.235 Y106.518 E8.10786
G1 X146.722 Y107.299 E8.15071
G1 X147.139 Y108.12 E8.19359
G1 X147.484 Y108.974 E8.23648
G1 X147.753 Y109.854 E8.27933
G1 X147.945 Y110.755 E8.32222
G1 X148.058 Y111.668 E8.36506
G1 X148.087 Y112.212 E8.39043
G1 X148.1 Y112.83 E8.41921
G1 X148.099 Y121.895 E8.84132
G1 X148.09 Y122.622 E8.87517
G1 X148.039 Y123.541 E8.91803
G1 X147.908 Y124.453 E8.96093
G1 X147.698 Y125.349 E9.00378
G1 X147.412 Y126.224 E9.04665
G1 X147.051 Y127.071 E9.08952
G1 X146.617 Y127.883 E9.13239
G1 X146.115 Y128.655 E9.17527
G1 X145.547 Y129.38 E9.21816
G1 X144.919 Y130.053 E9.26102
G1 X144.235 Y130.669 E9.30388
G1 X143.5 Y131.223 E9.34674
G1 X142.72 Y131.712 E9.38961
G1 X141.9 Y132.131 E9.43249
G1 X141.047 Y132.477 E9.47535
G1 X140.167 Y132.748 E9.51822
G1 X139.267 Y132.941 E9.56109
G1 X138.353 Y133.056 E9.60398
G1 X137.788 Y133.087 E9.63033
G1 X137.17 Y133.1 E9.65911
G1 X98.07 Y133.099 E11.47977
G1 X97.372 Y133.09 E11.51228
G1 X96.453 Y133.038 E11.55514
G1 X95.542 Y132.907 E11.59799
G1 X94.646 Y132.697 E11.64085
G1 X93.771 Y132.41 E11.68372
G1 X92.924 Y132.048 E11.72662
G1 X92.112 Y131.614 E11.76949
G1 X91.341 Y131.112 E11.81233
G1 X90.616 Y130.544 E11.85521
G1 X89.943 Y129.915 E11.89811
G1 X89.328 Y129.231 E11.94094
G1 X88.774 Y128.496 E11.9838
G1 X88.286 Y127.715 E12.02668
G1 X87.867 Y126.895 E12.06956
G1 X87.521 Y126.042 E12.11242
G1 X87.251 Y125.162 E12.15528
G1 X87.058 Y124.261 E12.19819
G1 X86.944 Y123.348 E12.24103
G1 X86.913 Y122.777 E12.26766
G1 X86.9 Y122.158 E12.29649
G1 X86.901 Y113.031 E12.72148
G1 X86.91 Y112.366 E12.75245
G1 X86.962 Y111.446 E12.79535
G1 X87.094 Y110.535 E12.83822
G1 X87.305 Y109.639 E12.88108
G1 X87.592 Y108.764 E12.92396
G1 X87.955 Y107.918 E12.96683
G1 X88.389 Y107.106 E13.0097
G1 X88.892 Y106.335 E13.05256
G1 X89.461 Y105.611 E13.09544
G1 X90.089 Y104.939 E13.13827
G1 X90.774 Y104.323 E13.18117
G1 X91.51 Y103.77 E13.22403
G1 X92.291 Y103.282 E13.26692
G1 X93.111 Y102.864 E13.30977
G1 X93.965 Y102.519 E13.35266
G1 X94.845 Y102.249 E13.39552
G1 X95.745 Y102.057 E13.43837
G1 X96.659 Y101.943 E13.48126
G1 X97.212 Y101.913 E13.50705
G1 X97.83 Y101.9 E13.53583
G1 X136.945 Y101.901 E15.35719
G1 X137.643 Y101.911 E15.3897
G0 F6000 X137.649 Y101.511
G1 F1200 X138.585 Y101.565 E15.43335
G1 X139.513 Y101.697 E15.477
G1 X140.427 Y101.909 E15.52069
G1 X141.319 Y102.198 E15.56435
G1 X142.184 Y102.561 E15.60803
G1 X143.014 Y102.997 E15.65169
G1 X143.805 Y103.502 E15.69539
G1 X144.549 Y104.073 E15.73906
G1 X145.242 Y104.705 E15.78273
G1 X145.879 Y105.393 E15.82639
G1 X146.454 Y106.134 E15.87006
G1 X146.965 Y106.92 E15.91372
G1 X147.407 Y107.748 E15.95742
G1 X147.776 Y108.61 E16.00108
G1 X148.071 Y109.5 E16.04474
G1 X148.289 Y110.412 E16.08841
G1 X148.429 Y111.34 E16.13211
G1 X148.487 Y112.201 E16.17229
G1 X148.5 Y112.83 E16.20158
G1 X148.499 Y121.9 E16.62392
G1 X148.49 Y122.627 E16.65778
G1 X148.439 Y123.564 E16.70147
G1 X148.307 Y124.492 E16.74512
G1 X148.098 Y125.406 E16.78878
G1 X147.811 Y126.299 E16.83245
G1 X147.449 Y127.165 E16.87616
G1 X147.015 Y127.996 E16.91981
G1 X146.511 Y128.787 E16.96349
G1 X145.942 Y129.532 E17.00714
G1 X145.311 Y130.227 E17.05085
G1 X144.624 Y130.865 E17.0945
G1 X143.885 Y131.442 E17.13816
G1 X143.099 Y131.954 E17.18184
G1 X142.273 Y132.397 E17.22549
G1 X141.411 Y132.769 E17.2692
G1 X140.522 Y133.065 E17.31283
G1 X139.61 Y133.285 E17.35652
G1 X138.683 Y133.426 E17.40018
G1 X137.799 Y133.487 E17.44144
G1 X137.17 Y133.5 E17.47073
G1 X98.065 Y133.499 E19.29163
G1 X97.367 Y133.49 E19.32413
G1 X96.431 Y133.438 E19.36778
G1 X95.502 Y133.306 E19.41147
G1 X94.588 Y133.096 E19.45514
G1 X93.695 Y132.809 E19.49882
G1 X92.83 Y132.446 E19.5425
G1 X91.999 Y132.012 E19.58615
G1 X91.208 Y131.508 E19.62983
G1 X90.463 Y130.938 E19.67351
G1 X89.769 Y130.307 E19.71718
G1 X89.132 Y129.62 E19.76081
G1 X88.555 Y128.88 E19.8045
G1 X88.043 Y128.094 E19.84818
G1 X87.6 Y127.267 E19.89187
G1 X87.229 Y126.406 E19.93552
G1 X86.933 Y125.516 E19.9792
G1 X86.714 Y124.604 E20.02287
G1 X86.573 Y123.677 E20.06653
G1 X86.513 Y122.788 E20.10802
G1 X86.5 Y122.158 E20.13736
G1 X86.501 Y113.025 E20.56263
G1 X86.51 Y112.36 E20.5936
G1 X86.563 Y111.424 E20.63726
G1 X86.695 Y110.495 E20.68095
G1 X86.906 Y109.581 E20.72463
G1 X87.194 Y108.689 E20.76827
G1 X87.557 Y107.824 E20.81196
G1 X87.992 Y106.993 E20.85563
G1 X88.496 Y106.203 E20.89927
G1 X89.066 Y105.458 E20.94294
G1 X89.698 Y104.764 E20.98665
G1 X90.386 Y104.127 E21.03031
G1 X91.126 Y103.551 E21.07398
G1 X91.912 Y103.039 E21.11766
G1 X92.739 Y102.597 E21.16132
G1 X93.601 Y102.227 E21.205
G1 X94.491 Y101.931 E21.24867
G1 X95.403 Y101.713 E21.29234
G1 X96.33 Y101.572 E21.336
G1 X97.201 Y101.513 E21.37665
G1 X97.83 Y101.5 E21.40594
G1 X136.951 Y101.501 E23.22758
G1 X137.649 Y101.511 E23.26009
G1 F2700 E18.26009
;MESH:50mm.stl
G0 F6000 X137.08 Y111.835
G0 X137.08 Y112.92
G0 X98.282 Y113.282
G0 X98.1 Y121.9
;TYPE:WALL-INNER
G1 F2700 E23.26009
G1 F1200 X98.1 Y113.1 E23.66985
G1 X136.9 Y113.1 E25.47654
G1 X136.9 Y121.9 E25.88631
G1 X98.1 Y121.9 E27.693
G0 F6000 X97.7 Y122.3
;TYPE:WALL-OUTER
G1 F1200 X97.7 Y112.7 E28.14001
G1 X137.3 Y112.7 E29.98396
G1 X137.3 Y122.3 E30.43097
G1 X97.7 Y122.3 E32.27491
G0 F6000 X97.97 Y122.03
G0 X98.21 Y121.51
G0 X98.49 Y121.51
;TYPE:SKIN
G1 F1200 X98.49 Y113.49 E32.64836
G1 X136.51 Y113.49 E34.41873
G1 X136.51 Y121.51 E34.79217
G1 X98.49 Y121.51 E36.56254
G0 F6000 X98.722 Y121.349
G1 F1200 X98.649 Y121.277 E36.56732
G0 F6000 X98.649 Y120.711
G1 F1200 X99.287 Y121.349 E36.60933
G0 F6000 X99.853 Y121.349
G1 F1200 X98.649 Y120.145 E36.68862
G0 F6000 X98.649 Y119.58
G1 F1200 X100.419 Y121.349 E36.80514
G0 F6000 X100.984 Y121.349
G1 F1200 X98.649 Y119.014 E36.95891
G0 F6000 X98.649 Y118.448
G1 F1200 X101.55 Y121.349 E37.14994
G0 F6000 X102.116 Y121.349
G1 F1200 X98.649 Y117.883 E37.37822
G0 F6000 X98.649 Y117.317
G1 F1200 X102.681 Y121.349 E37.64373
G0 F6000 X103.247 Y121.349
G1 F1200 X98.649 Y116.751 E37.94652
G0 F6000 X98.649 Y116.186
G1 F1200 X103.813 Y121.349 E38.28654
G0 F6000 X104.378 Y121.349
G1 F1200 X98.649 Y115.62 E38.66381
G0 F6000 X98.649 Y115.054
G1 F1200 X104.944 Y121.349 E39.07834
G0 F6000 X105.51 Y121.349
G1 F1200 X98.649 Y114.489 E39.53012
G0 F6000 X98.649 Y113.923
G1 F1200 X106.075 Y121.349 E40.01913
G0 F6000 X106.641 Y121.349
G1 F1200 X98.941 Y113.649 E40.52619
G0 F6000 X99.507 Y113.649
G1 F1200 X107.207 Y121.349 E41.03325
G0 F6000 X107.772 Y121.349
G1 F1200 X100.073 Y113.649 E41.54027
G0 F6000 X100.638 Y113.649
G1 F1200 X108.338 Y121.349 E42.04733
G0 F6000 X108.904 Y121.349
G1 F1200 X101.204 Y113.649 E42.55439
G0 F6000 X101.77 Y113.649
G1 F1200 X109.47 Y121.349 E43.06145
G0 F6000 X110.035 Y121.349
G1 F1200 X102.336 Y113.649 E43.56847
G0 F6000 X102.901 Y113.649
G1 F1200 X110.601 Y121.349 E44.07553
G0 F6000 X111.167 Y121.349
G1 F1200 X103.467 Y113.649 E44.58259
G0 F6000 X104.033 Y113.649
G1 F1200 X111.732 Y121.349 E45.08962
G0 F6000 X112.298 Y121.349
G1 F1200 X104.598 Y113.649 E45.59667
G0 F6000 X105.164 Y113.649
G1 F1200 X112.864 Y121.349 E46.10373
G0 F6000 X113.429 Y121.349
G1 F1200 X105.73 Y113.649 E46.61076
G0 F6000 X106.295 Y113.649
G1 F1200 X113.995 Y121.349 E47.11782
G0 F6000 X114.561 Y121.349
G1 F1200 X106.861 Y113.649 E47.62487
G0 F6000 X107.427 Y113.649
G1 F1200 X115.126 Y121.349 E48.1319
G0 F6000 X115.692 Y121.349
G1 F1200 X107.992 Y113.649 E48.63896
G0 F6000 X108.558 Y113.649
G1 F1200 X116.258 Y121.349 E49.14602
G0 F6000 X116.823 Y121.349
G1 F1200 X109.124 Y113.649 E49.65304
G0 F6000 X109.689 Y113.649
G1 F1200 X117.389 Y121.349 E50.1601
G0 F6000 X117.955 Y121.349
G1 F1200 X110.255 Y113.649 E50.66716
G0 F6000 X110.821 Y113.649
G1 F1200 X118.52 Y121.349 E51.17418
G0 F6000 X119.086 Y121.349
G1 F1200 X111.386 Y113.649 E51.68124
G0 F6000 X111.952 Y113.649
G1 F1200 X119.652 Y121.349 E52.1883
G0 F6000 X120.218 Y121.349
G1 F1200 X112.518 Y113.649 E52.69536
G0 F6000 X113.084 Y113.649
G1 F1200 X120.783 Y121.349 E53.20238
G0 F6000 X121.349 Y121.349
G1 F1200 X113.649 Y113.649 E53.70944
G0 F6000 X114.215 Y113.649
G1 F1200 X121.915 Y121.349 E54.2165
G0 F6000 X122.48 Y121.349
G1 F1200 X114.781 Y113.649 E54.72352
G0 F6000 X115.346 Y113.649
G1 F1200 X123.046 Y121.349 E55.23058
G0 F6000 X123.612 Y121.349
G1 F1200 X115.912 Y113.649 E55.73764
G0 F6000 X116.478 Y113.649
G1 F1200 X124.177 Y121.349 E56.24466
G0 F6000 X124.743 Y121.349
G1 F1200 X117.043 Y113.649 E56.75172
G0 F6000 X117.609 Y113.649
G1 F1200 X125.309 Y121.349 E57.25878
G0 F6000 X125.874 Y121.349
G1 F1200 X118.175 Y113.649 E57.76581
G0 F6000 X118.74 Y113.649
G1 F1200 X126.44 Y121.349 E58.27286
G0 F6000 X127.006 Y121.349
G1 F1200 X119.306 Y113.649 E58.77992
G0 F6000 X119.872 Y113.649
G1 F1200 X127.571 Y121.349 E59.28695
G0 F6000 X128.137 Y121.349
G1 F1200 X120.437 Y113.649 E59.79401
G0 F6000 X121.003 Y113.649
G1 F1200 X128.703 Y121.349 E60.30106
G0 F6000 X129.269 Y121.349
G1 F1200 X121.569 Y113.649 E60.80812
G0 F6000 X122.135 Y113.649
G1 F1200 X129.834 Y121.349 E61.31515
G0 F6000 X130.4 Y121.349
G1 F1200 X122.7 Y113.649 E61.82221
G0 F6000 X123.266 Y113.649
G1 F1200 X130.966 Y121.349 E62.32926
G0 F6000 X131.531 Y121.349
G1 F1200 X123.832 Y113.649 E62.83629
G0 F6000 X124.397 Y113.649
G1 F1200 X132.097 Y121.349 E63.34335
G0 F6000 X132.663 Y121.349
G1 F1200 X124.963 Y113.649 E63.85041
G0 F6000 X125.529 Y113.649
G1 F1200 X133.228 Y121.349 E64.35743
G0 F6000 X133.794 Y121.349
G1 F1200 X126.094 Y113.649 E64.86449
G0 F6000 X126.66 Y113.649
G1 F1200 X134.36 Y121.349 E65.37155
G0 F6000 X134.925 Y121.349
G1 F1200 X127.226 Y113.649 E65.87857
G0 F6000 X127.791 Y113.649
G1 F1200 X135.491 Y121.349 E66.38563
G0 F6000 X136.057 Y121.349
G1 F1200 X128.357 Y113.649 E66.89269
G0 F6000 X128.923 Y113.649
G1 F1200 X136.349 Y121.075 E67.3817
G0 F6000 X136.349 Y120.51
G1 F1200 X129.488 Y113.649 E67.83351
G0 F6000 X130.054 Y113.649
G1 F1200 X136.349 Y119.944 E68.24805
G0 F6000 X136.349 Y119.378
G1 F1200 X130.62 Y113.649 E68.62531
G0 F6000 X131.185 Y113.649
G1 F1200 X136.349 Y118.813 E68.96537
G0 F6000 X136.349 Y118.247
G1 F1200 X131.751 Y113.649 E69.26816
G0 F6000 X132.317 Y113.649
G1 F1200 X136.349 Y117.681 E69.53367
G0 F6000 X136.349 Y117.115
G1 F1200 X132.883 Y113.649 E69.76191
G0 F6000 X133.448 Y113.649
G1 F1200 X136.349 Y116.55 E69.95295
G0 F6000 X136.349 Y115.984
G1 F1200 X134.014 Y113.649 E70.10671
G0 F6000 X134.58 Y113.649
G1 F1200 X136.349 Y115.418 E70.2232
G0 F6000 X136.349 Y114.853
G1 F1200 X135.145 Y113.649 E70.30249
G0 F6000 X135.711 Y113.649
G1 F1200 X136.349 Y114.287 E70.3445
G0 F6000 X136.349 Y113.721
G1 F1200 X136.277 Y113.649 E70.34924
G0 F6000 X136.277 Y113.3
G1 F2700 E65.34924
;MESH:NONMESH
G0 F300 X136.277 Y113.3 Z0.56
G0 F6000 X136.277 Y113.21
G0 X98.282 Y113.282
G0 X98.1 Y121.9
;TIME_ELAPSED:88.668270
;LAYER:1
M140 S50
M106 S85
;TYPE:WALL-INNER
;MESH:50mm.stl
G1 F2700 E70.34924
G1 F1350 X98.1 Y113.1 E70.75901
G1 X136.9 Y113.1 E72.5657
G1 X136.9 Y121.9 E72.97546
G1 X98.1 Y121.9 E74.78216
G0 F7500 X97.7 Y122.3
;TYPE:WALL-OUTER
G1 F1350 X97.7 Y112.7 E75.22917
G1 X137.3 Y112.7 E77.07311
G1 X137.3 Y122.3 E77.52013
G1 X97.7 Y122.3 E79.36407
G0 F7500 X97.97 Y122.03
G0 X98.21 Y121.51
G0 X98.49 Y121.51
;TYPE:SKIN
G1 F1350 X98.49 Y113.49 E79.73752
G1 X136.51 Y113.49 E81.50789
G1 X136.51 Y121.51 E81.88133
G1 X98.49 Y121.51 E83.6517
G0 F7500 X98.21 Y121.51
G0 X98.21 Y114.047
G0 X98.649 Y114.047
G1 F1350 X99.048 Y113.649 E83.67794
G0 F7500 X99.614 Y113.649
G1 F1350 X98.649 Y114.613 E83.74146
G0 F7500 X98.649 Y115.179
G1 F1350 X100.18 Y113.649 E83.84224
G0 F7500 X100.745 Y113.649
G1 F1350 X98.649 Y115.744 E83.98024
G0 F7500 X98.649 Y116.31
G1 F1350 X101.311 Y113.649 E84.1555
G0 F7500 X101.877 Y113.649
G1 F1350 X98.649 Y116.876 E84.36804
G0 F7500 X98.649 Y117.441
G1 F1350 X102.442 Y113.649 E84.61778
G0 F7500 X103.008 Y113.649
G1 F1350 X98.649 Y118.007 E84.90479
G0 F7500 X98.649 Y118.573
G1 F1350 X103.574 Y113.649 E85.22908
G0 F7500 X104.139 Y113.649
G1 F1350 X98.649 Y119.139 E85.59061
G0 F7500 X98.649 Y119.704
G1 F1350 X104.705 Y113.649 E85.98937
